public/home/services/governance-model-design.svg

<svg width="64" height="64" viewBox="0 0 64 64" fill="none" xmlns="http://www.w3.org/2000/svg">
<path d="M3.31034 26.8636H11.0345V46.7257H5.51724C5.22459 46.7257 4.94392 46.8419 4.73699 47.0489C4.53005 47.2558 4.41379 47.5365 4.41379 47.8291C4.41379 48.1218 4.53005 48.4024 4.73699 48.6094C4.94392 48.8163 5.22459 48.9326 5.51724 48.9326H58.4828C58.7754 48.9326 59.0561 48.8163 59.263 48.6094C59.4699 48.4024 59.5862 48.1218 59.5862 47.8291C59.5862 47.5365 59.4699 47.2558 59.263 47.0489C59.0561 46.8419 58.7754 46.7257 58.4828 46.7257H52.9655V26.8636H60.6897C60.9303 26.8642 61.1645 26.786 61.3566 26.6411C61.5487 26.4963 61.6882 26.2925 61.7538 26.061C61.8194 25.8295 61.8075 25.5829 61.72 25.3588C61.6325 25.1346 61.4741 24.9453 61.269 24.8195L32.5793 7.1643C32.4052 7.05689 32.2046 7 32 7C31.7954 7 31.5948 7.05689 31.4207 7.1643L2.73103 24.8195C2.5259 24.9453 2.36751 25.1346 2.27998 25.3588C2.19245 25.5829 2.18058 25.8295 2.24619 26.061C2.3118 26.2925 2.45129 26.4963 2.6434 26.6411C2.83551 26.786 3.06972 26.8642 3.31034 26.8636ZM13.2414 26.8636H24.2759V46.7257H13.2414V26.8636ZM37.5172 26.8636V46.7257H26.4828V26.8636H37.5172ZM50.7586 46.7257H39.7241V26.8636H50.7586V46.7257ZM32 9.40154L56.7917 24.6567H7.20828L32 9.40154ZM64 56.6567C64 56.9494 63.8837 57.23 63.6768 57.437C63.4699 57.6439 63.1892 57.7602 62.8965 57.7602H1.10345C0.810796 57.7602 0.530129 57.6439 0.323192 57.437C0.116256 57.23 0 56.9494 0 56.6567C0 56.3641 0.116256 56.0834 0.323192 55.8765C0.530129 55.6695 0.810796 55.5533 1.10345 55.5533H62.8965C63.1892 55.5533 63.4699 55.6695 63.6768 55.8765C63.8837 56.0834 64 56.3641 64 56.6567Z" fill="#242424"/>
</svg>

<svg width="64" height="64" viewBox="0 0 64 64" fill="none" xmlns="http://www.w3.org/2000/svg"><path d="M3.31 26.864h7.724v19.862H5.517a1.103 1.103 0 1 0 0 2.207h52.966a1.104 1.104 0 0 0 0-2.207h-5.517V26.864h7.724a1.103 1.103 0 0 0 .579-2.044L32.579 7.164a1.1 1.1 0 0 0-1.158 0L2.73 24.82a1.103 1.103 0 0 0 .58 2.044m9.931 0h11.035v19.862H13.24zm24.276 0v19.862H26.483V26.864zM50.76 46.726H39.724V26.864H50.76zM32 9.402l24.792 15.255H7.208zm32 47.255a1.104 1.104 0 0 1-1.103 1.103H1.103a1.104 1.104 0 0 1 0-2.207h61.794A1.103 1.103 0 0 1 64 56.657" fill="#242424"/></svg>
